X: 1
T: Flying Home to Shelley
C:Paul Gitlitz
M: 4/4
L: 1/8
R: reel
K: G
|"G""^>"DGdG "^>"cGBG|"Am""^>"DGcG "^>"BGAG|"Bm"DGAG BGAG|"C" DEGD "D"EDB,C|
"G"DGdG cGBG|"Am"DGcG BGAG|"Bm"DGAG "Am"BGAG|1 "D"DEFD "G"G4 :|\
	[2 "D"DEFD "G"GABc||
"G"d3 B AGAB|"Am"c3 B AG E2|"C"e3 d "Bm"BA G2|"Am"ABdA "D"BAGB|
"Em"d3 B AGAB|"Am"cGBG AG E2|"C"e3 d "Am" BA G2|1"D"ABAF "G"GABc:|\
	[2 "D"ABAF "G"G4||

#include "RightHeader.h"
%%footer 05/29/15 For use only by Roaring Jelly members
%%text Set 124 NEFFA '15 Scotch Flying Madness Set, continued
%%scale .9
$SmallLMargin
$SmallRMargin
